X:505
T:Highland Skip 1
T:Parnell's Reel
T:Boyne Hunt, The
N:Originally 'The Perthshire Hunt'
B:Cole's 1000 Fiddle Tunes
Z:Nigel Gatherer
M:4/4
L:1/8
K:C
G2EG CGEG | G2EG ADDA | G2EG CGEG | GAcd edcA  |
G2EG CGEG | G2EG ADDA | G2EG CGEG | GAcd ecc2 ||
Gcec gcec | Gcec fdd2 | Gcec gcec | GAcd ecc2  |
Gcec gcec | Gcec fdd2 | efed cdcA | GAcd ecc2  |